elementary-xfce-darker/actions/16/zoom-fit-best.svg

<?xml version="1.0" encoding="UTF-8" standalone="no"?>
<svg
   xmlns:dc="http://purl.org/dc/elements/1.1/"
   xmlns:cc="http://creativecommons.org/ns#"
   xmlns:rdf="http://www.w3.org/1999/02/22-rdf-syntax-ns#"
   xmlns:svg="http://www.w3.org/2000/svg"
   xmlns="http://www.w3.org/2000/svg"
   xmlns:xlink="http://www.w3.org/1999/xlink"
   version="1.1"
   width="16"
   height="16"
   id="svg3792">
  <defs
     id="defs3794">
    <linearGradient
       id="linearGradient2867-449-88-871-390-598-476-591-434-148-57-177-641-289-620-227-114-444-680-744-4">
      <stop
         id="stop5430-5"
         style="stop-color:#737373;stop-opacity:1"
         offset="0" />
      <stop
         id="stop5432-2"
         style="stop-color:#636363;stop-opacity:1"
         offset="0.26238" />
      <stop
         id="stop5434-9"
         style="stop-color:#4b4b4b;stop-opacity:1"
         offset="0.704952" />
      <stop
         id="stop5436-2"
         style="stop-color:#3f3f3f;stop-opacity:1"
         offset="1" />
    </linearGradient>
    <radialGradient
       xlink:href="#linearGradient2867-449-88-871-390-598-476-591-434-148-57-177-641-289-620-227-114-444-680-744-4"
       id="radialGradient3815"
       cx="8"
       cy="0.99999988"
       fx="8"
       fy="0.99999988"
       r="7"
       gradientUnits="userSpaceOnUse"
       gradientTransform="matrix(-7.768152e-8,2.5714285,-2.4285714,-7.3365881e-8,10.428571,-19.571428)" />
    <radialGradient
       xlink:href="#linearGradient2867-449-88-871-390-598-476-591-434-148-57-177-641-289-620-227-114-444-680-744-4"
       id="radialGradient3823"
       cx="8"
       cy="1"
       fx="8"
       fy="1"
       r="6.5"
       gradientUnits="userSpaceOnUse"
       gradientTransform="matrix(-2.3599028e-8,2.7692308,-2.6153846,-2.2287971e-8,10.615384,-21.153847)" />
  </defs>
  <metadata
     id="metadata3797">
    <rdf:RDF>
      <cc:Work
         rdf:about="">
        <dc:format>image/svg+xml</dc:format>
        <dc:type
           rdf:resource="http://purl.org/dc/dcmitype/StillImage" />
        <dc:title />
      </cc:Work>
    </rdf:RDF>
  </metadata>
  <rect
     style="opacity:0.35;fill:#ffffff;fill-opacity:1;fill-rule:nonzero;stroke:#ffffff;stroke-width:1;stroke-linecap:round;stroke-linejoin:miter;stroke-miterlimit:4;stroke-opacity:1;stroke-dasharray:none;stroke-dashoffset:0"
     id="rect3042"
     width="13"
     height="13"
     x="1.5"
     y="2.5"
     ry="1.8571428" />
  <rect
     style="opacity:1;fill:url(#radialGradient3815);fill-opacity:1;fill-rule:nonzero;stroke:url(#radialGradient3823);stroke-width:1;stroke-linecap:round;stroke-linejoin:miter;stroke-miterlimit:4;stroke-opacity:1;stroke-dasharray:none;stroke-dashoffset:0"
     id="rect3037"
     width="13"
     height="13"
     x="1.5"
     y="1.5"
     ry="1.8571428" />
  <rect
     ry="1.8571428"
     y="1.5"
     x="1.5"
     height="13"
     width="13"
     id="rect3807"
     style="opacity:0.10000000000000001;fill:none;fill-opacity:1;fill-rule:nonzero;stroke:#000000;stroke-width:1;stroke-linecap:round;stroke-linejoin:miter;stroke-miterlimit:4;stroke-opacity:1;stroke-dasharray:none;stroke-dashoffset:0" />
  <rect
     style="opacity:0.03;fill:none;stroke:#000000;stroke-width:0.99999994000000003;stroke-linecap:round;stroke-linejoin:miter;stroke-miterlimit:4;stroke-opacity:1;stroke-dasharray:none;stroke-dashoffset:0"
     id="rect3825"
     width="11"
     height="11"
     x="2.5"
     y="2.5"
     ry="1.5714285" />
  <path
     style="color:#000000;fill:none;fill-opacity:1;stroke:#000000;stroke-width:0.98542737999999996;stroke-linecap:round;stroke-linejoin:round;stroke-miterlimit:4;stroke-opacity:1;stroke-dasharray:none;stroke-dashoffset:0;marker:none;visibility:visible;display:inline;overflow:visible;enable-background:accumulate;opacity:0.1"
     d="m 6.507286,3.5 0,2 -1.007286,0 0,0.9927 -2,0 0,-2.9927 z"
     id="path2262" />
  <path
     id="path3922"
     d="m 9.500286,3.5 0,2 0.999714,0 0,0.9997 2,0 0,-2.9997 z"
     style="color:#000000;fill:none;fill-opacity:1;stroke:#000000;stroke-width:0.98542737999999996;stroke-linecap:round;stroke-linejoin:round;stroke-miterlimit:4;stroke-opacity:1;stroke-dasharray:none;stroke-dashoffset:0;marker:none;visibility:visible;display:inline;overflow:visible;enable-background:accumulate;opacity:0.1" />
  <path
     id="path3924"
     d="m 6.500286,12.5 0,-2 -1.000286,0 0,-1.0003 -2,0 0,3.0003 z"
     style="color:#000000;fill:none;fill-opacity:1;stroke:#000000;stroke-width:0.98542737999999996;stroke-linecap:round;stroke-linejoin:round;stroke-miterlimit:4;stroke-opacity:1;stroke-dasharray:none;stroke-dashoffset:0;marker:none;visibility:visible;display:inline;overflow:visible;enable-background:accumulate;opacity:0.1" />
  <path
     style="color:#000000;fill:none;fill-opacity:1;stroke:#000000;stroke-width:0.98542737999999996;stroke-linecap:round;stroke-linejoin:round;stroke-miterlimit:4;stroke-opacity:1;stroke-dasharray:none;stroke-dashoffset:0;marker:none;visibility:visible;display:inline;overflow:visible;enable-background:accumulate;opacity:0.1"
     d="m 9.500286,12.5 0,-2 0.999714,0 0,-1.0003 2,0 0,3.0003 z"
     id="path3926" />
  <path
     style="fill:#ffffff;stroke:none;stroke-width:1px;stroke-linecap:butt;stroke-linejoin:miter;stroke-opacity:1;fill-opacity:1"
     d="M 4,6 4,4 6,4 6,5 5,5 5,6 z"
     id="path4244" />
  <path
     id="path4246"
     d="m 4,10 0,2 2,0 0,-1 -1,0 0,-1 z"
     style="fill:#ffffff;fill-opacity:1;stroke:none" />
  <path
     style="fill:#ffffff;fill-opacity:1;stroke:none"
     d="m 12,10 0,2 -2,0 0,-1 1,0 0,-1 z"
     id="path4248" />
  <path
     id="path4250"
     d="m 12,6 0,-2 -2,0 0,1 1,0 0,1 z"
     style="fill:#ffffff;fill-opacity:1;stroke:none" />
</svg>

<?xml version="1.0" encoding="UTF-8" standalone="no"?>
<svg
   version="1.1"
   width="16"
   height="16"
   id="svg3792"
   xmlns:xlink="http://www.w3.org/1999/xlink"
   xmlns="http://www.w3.org/2000/svg"
   xmlns:svg="http://www.w3.org/2000/svg"
   xmlns:rdf="http://www.w3.org/1999/02/22-rdf-syntax-ns#"
   xmlns:cc="http://creativecommons.org/ns#"
   xmlns:dc="http://purl.org/dc/elements/1.1/">
  <defs
     id="defs3794">
    <linearGradient
       id="linearGradient2867-449-88-871-390-598-476-591-434-148-57-177-641-289-620-227-114-444-680-744-4">
      <stop
         id="stop5430-5"
         style="stop-color:#737373;stop-opacity:1"
         offset="0" />
      <stop
         id="stop5432-2"
         style="stop-color:#636363;stop-opacity:1"
         offset="0.26238" />
      <stop
         id="stop5434-9"
         style="stop-color:#4b4b4b;stop-opacity:1"
         offset="0.704952" />
      <stop
         id="stop5436-2"
         style="stop-color:#3f3f3f;stop-opacity:1"
         offset="1" />
    </linearGradient>
    <radialGradient
       xlink:href="#linearGradient2867-449-88-871-390-598-476-591-434-148-57-177-641-289-620-227-114-444-680-744-4"
       id="radialGradient3815"
       cx="8"
       cy="0.99999988"
       fx="8"
       fy="0.99999988"
       r="7"
       gradientUnits="userSpaceOnUse"
       gradientTransform="matrix(-7.768152e-8,2.5714285,-2.4285714,-7.3365881e-8,10.428571,-19.571428)" />
    <radialGradient
       xlink:href="#linearGradient2867-449-88-871-390-598-476-591-434-148-57-177-641-289-620-227-114-444-680-744-4"
       id="radialGradient3823"
       cx="8"
       cy="1"
       fx="8"
       fy="1"
       r="6.5"
       gradientUnits="userSpaceOnUse"
       gradientTransform="matrix(-2.3599028e-8,2.7692308,-2.6153846,-2.2287971e-8,10.615384,-21.153847)" />
  </defs>
  <metadata
     id="metadata3797">
    <rdf:RDF>
      <cc:Work
         rdf:about="">
        <dc:format>image/svg+xml</dc:format>
        <dc:type
           rdf:resource="http://purl.org/dc/dcmitype/StillImage" />
      </cc:Work>
    </rdf:RDF>
  </metadata>
  <g
     id="g1">
    <rect
       style="display:inline;opacity:0.35;fill:#ffffff;fill-opacity:1;fill-rule:nonzero;stroke:#ffffff;stroke-width:1;stroke-linecap:round;stroke-linejoin:miter;stroke-miterlimit:4;stroke-dasharray:none;stroke-dashoffset:0;stroke-opacity:1"
       id="rect3042"
       width="13"
       height="13"
       x="1.5"
       y="2.5"
       ry="0.99604523"
       rx="0.99605453" />
    <rect
       style="display:inline;opacity:1;fill:url(#radialGradient3815);fill-opacity:1;fill-rule:nonzero;stroke:url(#radialGradient3823);stroke-width:1;stroke-linecap:round;stroke-linejoin:miter;stroke-miterlimit:4;stroke-dasharray:none;stroke-dashoffset:0;stroke-opacity:1"
       id="rect3037"
       width="13"
       height="13"
       x="1.5"
       y="1.5"
       ry="1.0031905"
       rx="0.99925554" />
    <rect
       ry="0.99650007"
       y="1.5"
       x="1.5"
       height="13"
       width="13"
       id="rect3807"
       style="display:inline;opacity:0.1;fill:none;fill-opacity:1;fill-rule:nonzero;stroke:#000000;stroke-width:1;stroke-linecap:round;stroke-linejoin:miter;stroke-miterlimit:4;stroke-dasharray:none;stroke-dashoffset:0;stroke-opacity:1"
       rx="0.99912137" />
    <rect
       style="display:inline;opacity:0.03;fill:none;stroke:#000000;stroke-width:1;stroke-linecap:round;stroke-linejoin:miter;stroke-miterlimit:4;stroke-dasharray:none;stroke-dashoffset:0;stroke-opacity:1"
       id="rect3825"
       width="11"
       height="11"
       x="2.5"
       y="2.5"
       ry="0"
       rx="0" />
    <path
       style="color:#000000;display:inline;overflow:visible;visibility:visible;opacity:0.1;fill:none;fill-opacity:1;stroke:#000000;stroke-width:0.985427;stroke-linecap:round;stroke-linejoin:round;stroke-miterlimit:4;stroke-dasharray:none;stroke-dashoffset:0;stroke-opacity:1;marker:none;enable-background:accumulate"
       d="m 6.5,3.5 v 2 h -1 v 1 h -2 l -0.00364,-3 z"
       id="path2262" />
    <path
       id="path3922"
       d="m 9.500286,3.5 v 2 H 10.5 v 0.9997 h 2 V 3.5 Z"
       style="color:#000000;display:inline;overflow:visible;visibility:visible;opacity:0.1;fill:none;fill-opacity:1;stroke:#000000;stroke-width:0.985427;stroke-linecap:round;stroke-linejoin:round;stroke-miterlimit:4;stroke-dasharray:none;stroke-dashoffset:0;stroke-opacity:1;marker:none;enable-background:accumulate" />
    <path
       id="path3924"
       d="m 6.500286,12.5 v -2 H 5.5 V 9.4997 h -2 V 12.5 Z"
       style="color:#000000;display:inline;overflow:visible;visibility:visible;opacity:0.1;fill:none;fill-opacity:1;stroke:#000000;stroke-width:0.985427;stroke-linecap:round;stroke-linejoin:round;stroke-miterlimit:4;stroke-dasharray:none;stroke-dashoffset:0;stroke-opacity:1;marker:none;enable-background:accumulate" />
    <path
       style="color:#000000;display:inline;overflow:visible;visibility:visible;opacity:0.1;fill:none;fill-opacity:1;stroke:#000000;stroke-width:0.985427;stroke-linecap:round;stroke-linejoin:round;stroke-miterlimit:4;stroke-dasharray:none;stroke-dashoffset:0;stroke-opacity:1;marker:none;enable-background:accumulate"
       d="m 9.500286,12.5 v -2 H 10.5 V 9.4997 h 2 V 12.5 Z"
       id="path3926" />
    <path
       style="display:inline;fill:#ffffff;fill-opacity:1;stroke:none;stroke-width:1px;stroke-linecap:butt;stroke-linejoin:miter;stroke-opacity:1"
       d="M 4,6 V 4 H 6 V 5 H 5 v 1 z"
       id="path4244" />
    <path
       id="path4246"
       d="m 4,10 v 2 H 6 V 11 H 5 v -1 z"
       style="display:inline;fill:#ffffff;fill-opacity:1;stroke:none" />
    <path
       style="display:inline;fill:#ffffff;fill-opacity:1;stroke:none"
       d="m 12,10 v 2 h -2 v -1 h 1 v -1 z"
       id="path4248" />
    <path
       id="path4250"
       d="M 12,6 V 4 h -2 v 1 h 1 v 1 z"
       style="display:inline;fill:#ffffff;fill-opacity:1;stroke:none" />
  </g>
</svg>
